dist/img/icons/info.svg

<svg width="24" height="24" viewBox="0 0 24 24" fill="none" xmlns="http://www.w3.org/2000/svg">
<path d="M12 7.00001C11.7167 7.00001 11.479 7.09601 11.287 7.28801C11.095 7.48001 10.9993 7.71734 11 8.00001V12C11 12.2833 11.096 12.5207 11.288 12.712C11.48 12.9033 11.7173 12.9993 12 13C12.2827 13.0007 12.52 12.9047 12.712 12.712C12.904 12.5193 13 12.282 13 12V8.00001C13 7.71667 12.904 7.47901 12.712 7.28701C12.52 7.09501 12.2827 6.99934 12 7.00001ZM12 15C11.7167 15 11.479 15.096 11.287 15.288C11.095 15.48 10.9993 15.7173 11 16C11.0007 16.2827 11.0967 16.52 11.288 16.712C11.4793 16.904 11.7167 17 12 17C12.2833 17 12.5207 16.904 12.712 16.712C12.9033 16.52 12.9993 16.2827 13 16C13.0007 15.7173 12.9047 15.4797 12.712 15.287C12.5193 15.0943 12.282 14.9987 12 15ZM12 2.00001C13.3833 2.00001 14.6833 2.26267 15.9 2.78801C17.1167 3.31334 18.175 4.02567 19.075 4.925C19.975 5.82434 20.6873 6.88267 21.212 8.10001C21.7367 9.31734 21.9993 10.6173 22 12C22.0007 13.3827 21.738 14.6827 21.212 15.9C20.686 17.1173 19.9737 18.1757 19.075 19.075C18.1763 19.9743 17.118 20.6867 15.9 21.212C14.682 21.7373 13.382 22 12 22C10.618 22 9.31801 21.7373 8.10001 21.212C6.88201 20.6867 5.82368 19.9743 4.92501 19.075C4.02634 18.1757 3.31368 17.1173 2.78701 15.9C2.26035 14.6827 1.99801 13.3827 2.00001 12C2.00201 10.6173 2.26468 9.31734 2.78801 8.10001C3.31134 6.88267 4.02368 5.82434 4.92501 4.925C5.82634 4.02567 6.88468 3.31301 8.10001 2.78701C9.31535 2.26101 10.6153 1.99867 12 2.00001ZM12 4.00001C9.76668 4.00001 7.87501 4.77501 6.32501 6.32501C4.77501 7.87501 4.00001 9.76667 4.00001 12C4.00001 14.2333 4.77501 16.125 6.32501 17.675C7.87501 19.225 9.76668 20 12 20C14.2333 20 16.125 19.225 17.675 17.675C19.225 16.125 20 14.2333 20 12C20 9.76667 19.225 7.87501 17.675 6.32501C16.125 4.77501 14.2333 4.00001 12 4.00001Z" fill="#2B2A29"/>
</svg>

<svg width="24" height="24" fill="none" xmlns="http://www.w3.org/2000/svg"><path d="M12 7a.968.968 0 00-.713.288A.964.964 0 0011 8v4c0 .283.096.52.288.712.192.191.43.287.712.288.283 0 .52-.095.712-.288A.97.97 0 0013 12V8a.968.968 0 00-.288-.713A.964.964 0 0012 7zm0 8a.968.968 0 00-.713.288A.964.964 0 0011 16c0 .283.097.52.288.712A.965.965 0 0012 17c.283 0 .52-.096.712-.288A.973.973 0 0013 16a.965.965 0 00-.288-.713A.96.96 0 0012 15zm0-13a9.74 9.74 0 013.9.788 10.114 10.114 0 013.175 2.137c.9.9 1.612 1.958 2.137 3.175A9.76 9.76 0 0122 12a9.713 9.713 0 01-.788 3.9 10.12 10.12 0 01-2.137 3.175 10.07 10.07 0 01-3.175 2.137A9.742 9.742 0 0112 22a9.742 9.742 0 01-3.9-.788 10.084 10.084 0 01-3.175-2.137A10.135 10.135 0 012.787 15.9 9.68 9.68 0 012 12a9.805 9.805 0 01.788-3.9 10.032 10.032 0 012.137-3.175c.901-.9 1.96-1.612 3.175-2.138A9.688 9.688 0 0112 2zm0 2c-2.233 0-4.125.775-5.675 2.325C4.775 7.875 4 9.767 4 12c0 2.233.775 4.125 2.325 5.675C7.875 19.225 9.767 20 12 20c2.233 0 4.125-.775 5.675-2.325C19.225 16.125 20 14.233 20 12c0-2.233-.775-4.125-2.325-5.675C16.125 4.775 14.233 4 12 4z" fill="#2B2A29"/></svg>
